X:015
T:Mulhaire's
B:Music from Ireland, Bulmer &amp; Sharpley, Vol. 4, no. 7
Z:Paul de Grae
R:reel
M:4/4
L:1/8
K:D
AG|F2 AF DFAF|G2 BG DGBG|cAec AecA|dcde fdAG|
F2 AF DFAF|GB ~B2 dB ~B2|Ae ~e2 gece|d2 ce d2:||:fg|
a2 fd adfd|adfd edBd|edef gfga|be ~e2 begb|
a2 fd adfd|adfd edBG|FA ~A2 GBdB|AFGE D2:||
